X:1
T:Title
%%score { ( 1 3 4 ) | ( 2 5 ) }
L:1/8
M:4/4
K:Ab
V:1 treble nm="Grand Piano"
V:3 treble 
V:4 treble 
V:2 bass 
V:5 bass 
V:1
 z4 z2[Q:1/4=106] E2 | [CEA]3 E FGAB | c6 e2 | e3 [Ec] [EB]2 [EA]2 |[M:3/4] [DF]6 |[M:1/4] [EF]2 | %6
[M:4/4] [DB]3 F G=ABc | d6 [Af]2 | [Ge]3 [Gc] [FA]2 [=DAB]2 |[M:3/4] [GB]6 |[M:1/4] e2 | %11
[M:4/4] e>e e2 z _GAB | _cd e2 z2 e2 | e>e e2 z EFG | z4 e4 | c2 BA E2 F2 | G4 B4 | c2 BA E2 F2 | %18
[M:3/4] G2 F2 E2 |[M:1/4] [DE]2 |[M:4/4] [CEA]3 E FGAB | c6 z2 | [Ad]2 [Ec]2 [FB]2 [Gc]2 | %23
[M:3/4] [CA]4 z2 |] %24
V:2
 z4 z2 E,2 | A,,3 [C,E,C] [D,F,D][E,G,E][K:treble][F,A,F][G,B,G] | [A,CA]6 [A,CE]2 | %3
 [A,CE]3[K:bass] [A,,A,] [B,,G,]2 [C,A,]2 |[M:3/4] [D,A,]6 |[M:1/4] [C,=A,]2 | %6
[M:4/4] [B,,B,]3 [D,F,D] [E,G,E][K:treble][F,=A,F][G,B,G][A,C=A] | [B,DB]6[K:bass] [D,B,]2 | %8
 [E,B,]3 [E,C] [F,C]2 [B,,B,]2 |[M:3/4] [E,E]6 |[M:1/4] [E,E]2 | %11
[M:4/4][K:treble] [_CE_G]>[CEG] [CEG]2 z[K:bass] _G,A,B, | _CD E2 z2[K:treble] [CE_G]2 | %13
 [B,DG]>[B,DG] [B,DG]2 z[K:bass] E,F,G, | A,=A, B,2 [E,G,DE]4 | [A,C]2 [E,C][E,C] [A,C]2 [E,C]2 | %16
 [DE]3 [DE] [DE]4 | [A,C]2 [E,C][E,C] C2 [_C=D]2 |[M:3/4] B,2 z2 z2 |[M:1/4] E,2 | %20
[M:4/4] A,,3 [C,E,C] [D,F,D][E,G,E][K:treble][F,A,F][G,B,G] | [CA]4 z2[K:bass] [C,A,]2 | %22
 [F,A,]2 [E,A,]2 [D,A,]2 [E,D]2 |[M:3/4] [A,,A,]4 z2 |] %24
V:3
 x8 | x8 | x8 | x8 |[M:3/4] x6 |[M:1/4] x2 |[M:4/4] x8 | x8 | x8 |[M:3/4] x6 |[M:1/4] x2 | %11
[M:4/4] x8 | x8 | x8 | z2 B4 z2 | x8 | z2 z A z2 E,2 | x8 |[M:3/4] x6 |[M:1/4] x2 |[M:4/4] x8 | %21
 z4 E2 [Ee]2 | x8 |[M:3/4] x6 |] %24
V:4
 x8 | x8 | x8 | x8 |[M:3/4] x6 |[M:1/4] x2 |[M:4/4] x8 | x8 | x8 |[M:3/4] x6 |[M:1/4] x2 | %11
[M:4/4] x8 | x8 | x8 | A=A z2 z2 ._c2 | x8 | z2 E,2 z4 | x8 |[M:3/4] x6 |[M:1/4] x2 |[M:4/4] x8 | %21
 x8 | x8 |[M:3/4] x6 |] %24
V:5
 x8 | x6[K:treble] x2 | x8 | x3[K:bass] x5 |[M:3/4] x6 |[M:1/4] x2 |[M:4/4] x5[K:treble] x3 | %7
 x6[K:bass] x2 | x8 |[M:3/4] x6 |[M:1/4] x2 |[M:4/4][K:treble] x5[K:bass] x3 | x6[K:treble] x2 | %13
 x5[K:bass] x3 | x8 | x8 | B,2 z2 G,2 z2 | x8 |[M:3/4] D2- [A,D-]2 [G,D]2 |[M:1/4] x2 | %20
[M:4/4] x6[K:treble] x2 | A,6[K:bass] z2 | x8 |[M:3/4] x6 |] %24

